X: 1
T: Tree Gap
R: reel
M: 4/4
L: 1/8
K: Amix
|:c3e dcBd|cAAB AGEF|G2GF GF(D2|D)EED EFAB|
c3e dcBd|cAAB AGEF|G2DG A~B3|BcdB cAA2:|
|:cA~A2 eA~A2|a2^gA eAcA|BGGF GFD=C|B,=CDE FGAB|
cA~A2 eA~A2|a2^gA eAcA|BGGF GABd|cedB cAA2:|